X: 219
T: Father Fielding's favorite
C: anon.
O: Ireland
B: Francis O'Neill: "The Dance Music of Ireland" (1907) no. 219
R: Double jig
Z: Transcribed by Frank Nordberg - http://www.musicaviva.com
F: http://www.musicaviva.com/abc/tunes/ireland/oneill-1001/oneill-1001-021
9.abc
M: 6/8
L: 1/8
K: G
D|G<AB BcA|AGG G2 (B/c/)|dBG FGA|FDD D2D|G<AB BcA|AGG fed|cAG FGA|BGG G2:
|
|:d|gfg afd|c>Bc dBG|gfg afd|cBc d2d|gfg gfg|ece efg|d>ed cBA|BGG G2:|
W:
W:
W: From Musica Viva - http://www.musicaviva.com
W: the Internet center for free sheet music downloads.


